X:1524
T:Humors of Newcastle, The
R:reel
N:"collected from Dillon"
B:"O'Neill's Dance Music of Ireland, 1524"
T: sugra .caislean-nua.da.
Z:transcribed by John B. Walsh, walsh@math.ubc.ca 8/23/96
M:C|
L:1/8
K:D
DFEF D2 (dB)|A2 FD EA,"~"A,2|DFEF D2 (dB)|AFDF T(ED)D2:|
d2 (fd) adfd|A2 ((3cBA) eA ((3cBA)|d2 (fd) adfd|((3fga) eg fB B2|
d2 (fd) adfd|A2 ((3cBA) eA ((3cBA)|dfeg ((3fga) ec|dBAG T(FD) D2||


